X: 9947
T: Dever The Dancer
R: slip jig
M: 9/8
K: Eminor
|:BEE BEF G2A|BEE BAG FGA|BEE BEF G2A|B/^c/ dB ABG FGA:|
|:ded cAF G2A|{B}d2 ^c def gfe|ded cAF G2A|B/^c/ dB ABG [1 FGA:|2 FED]|

